src/Assets/Icons/HomeScreen/MainFooterComponent/email.svg

<svg width="24" height="24" viewBox="0 0 24 24" fill="none" xmlns="http://www.w3.org/2000/svg">
<path d="M4.64272 4.7998H20.5427C22.0427 4.7998 22.7987 5.5078 22.7987 6.9478V17.0518C22.7987 18.4798 22.0427 19.1998 20.5427 19.1998H4.64272C3.14272 19.1998 2.38672 18.4798 2.38672 17.0518V6.9478C2.38672 5.5078 3.14272 4.7998 4.64272 4.7998ZM12.5867 15.1198L20.6747 8.48381C20.9627 8.24381 21.1907 7.69181 20.8307 7.19981C20.4827 6.7078 19.8467 6.6958 19.4267 6.9958L12.5867 11.6278L5.75872 6.9958C5.33872 6.6958 4.70272 6.7078 4.35472 7.19981C3.99472 7.69181 4.22272 8.24381 4.51072 8.48381L12.5867 15.1198Z" fill="white"/>
</svg>

<svg xmlns="http://www.w3.org/2000/svg" width="24" height="24" fill="none"><path fill="#fff" d="M4.643 4.8h15.9c1.5 0 2.256.708 2.256 2.148v10.104c0 1.428-.756 2.148-2.256 2.148h-15.9c-1.5 0-2.256-.72-2.256-2.148V6.948c0-1.44.756-2.148 2.256-2.148m7.944 10.32 8.088-6.636c.288-.24.516-.792.156-1.284-.348-.492-.984-.504-1.404-.204l-6.84 4.632-6.828-4.632c-.42-.3-1.056-.288-1.404.204-.36.492-.132 1.044.156 1.284z"/></svg>
